X:1
T:Title
%%score { 1 | 2 }
L:1/8
M:4/4
K:C
V:1 treble nm="Grand Piano"
V:2 bass 
V:1
 z4 z2[Q:1/4=92] [CE]>[DF] | [EG]>[EG] [_E^F]>[=EG] [=FA]>[EG] [CE]>[EG] | %2
 [Ec]>[Ec] [Fc]>[Fd] [Ec]2 [Gc]>[GB] | [FA]>[Ac] [GB]>[FA] [EG]>[Ec] [Ec]>[EB] | %4
 [^FA]>[Fe] [Fd]>[Fc] B2 A>G | [EG]>[EG] [_E^F]>[=EG] [=FA]>[EG] [CE]>[EG] | %6
 [Gc]>[Gc] [Gc]>d e2 [Ge]>[Ge] | [Ad]>[Ac] [GB]>[FA] [EG]>[Gc] [Gc]>[Ad] | %8
[M:7/8] [Ge]2 [Fd]2 [Ec]3 |[M:1/4] [Ec]>[Ec] |[M:4/4] c>d c>A [EG]>[CE] [Ec]>[Ec] | %11
 c>d c>A [CEG]2 E>F | G>G A>B c>c [EB]>[EB] | [^Fe]2 [Fd]2 [Gd]2 [CE]>[D=F] | %14
 [EG]>[EG] [_E^F]>[=EG] [=FA]>[EG] [CE]>[EG] | [Gc]>[Gc] [Gc]>d e2 [Ge]>[Ge] | %16
 [Ad]>[Ac] [GB]>[FA] [EG]>[Gc] [Gc]>[Ad] |[M:3/4] [Ge]2 [Fd]2 [Ec]2 |] %18
V:2
 z4 z2 [C,G,]>[C,G,] | [C,C]>[C,C] [C,C]>[C,C] [C,C]>[C,C] [C,G,]>[C,C] | %2
 [C,G,]>[C,G,] [F,A,]>[F,A,] [C,G,]2 [E,C]>[E,C] | %3
 [F,C]>[F,C] [F,C]>[F,C] [C,C]>[C,G,] [C,G,]>[C,G,] | %4
 [D,C]>[D,C] [D,A,]>[D,D][K:treble] [G,DF]2 [G,B,F]>[G,B,F] | %5
 [C,C]>[C,C] [C,C]>[C,C] [C,C]>[C,C] [C,G,]>[C,C] | %6
 [E,C]>[E,C] [E,C]>[K:treble][G,B,G] [CG]2[K:bass] [C,C]>[C,C] | %7
 [F,C]>[F,C] [F,C]>[F,C] [C,C]>[E,C] [E,C]>[F,C] |[M:7/8] [G,C]2 [G,B,]2 [C,C]3 | %9
[M:1/4] [C,G,]>[C,G,] |[M:4/4] [F,A,F]>[F,A,F] [F,A,F]>[F,CF] [C,C]>[C,G,] [C,G,]>[C,G,] | %11
 [F,A,F]>[F,A,F] [F,A,F]>[F,CF] C,2 E,>F, | G,>G, A,>B, C>C [C,G,]>[C,G,] | %13
 [D,C]2 [D,C]2 [G,B,]2 [C,G,]>[C,G,] | [C,C]>[C,C] [C,C]>[C,C] [C,C]>[C,C] [C,G,]>[C,C] | %15
 [E,C]>[E,C] [E,C]>[K:treble][G,B,G] [CG]2[K:bass] [C,C]>[C,C] | %16
 [F,C]>[F,C] [F,C]>[F,C] [C,C]>[E,C] [E,C]>[E,C] |[M:3/4] [G,C]2 [G,B,]2 [C,C]2 |] %18

